wp-content/plugins/google-analytics-for-wordpress/lite/assets/vue/img/icon-aioseo.svg

<svg width="27" height="27" viewBox="0 0 27 27" fill="none" xmlns="http://www.w3.org/2000/svg">
	<g clip-path="url(#clip0)">
		<path fill-rule="evenodd" clip-rule="evenodd"
			  d="M13.7056 26.0982C20.6824 26.0982 26.3381 20.4424 26.3381 13.4657C26.3381 6.48902 20.6824 0.833313 13.7056 0.833313C6.72897 0.833313 1.07324 6.48902 1.07324 13.4657C1.07324 20.4424 6.72897 26.0982 13.7056 26.0982ZM11.6942 5.45674C11.523 5.19595 11.2061 5.07402 10.9154 5.17669C10.5844 5.29365 10.2605 5.4312 9.94592 5.58851C9.66973 5.72662 9.53116 6.04205 9.59197 6.34972L9.80858 7.44586C9.86434 7.72798 9.74921 8.01432 9.53063 8.19623C9.18517 8.48372 8.86627 8.80876 8.58053 9.1685C8.40294 9.39209 8.12271 9.51063 7.84603 9.45473L6.7715 9.23766C6.46962 9.17668 6.16086 9.31935 6.02661 9.6019C5.95078 9.76152 5.87916 9.92448 5.81203 10.0907C5.74491 10.2569 5.68318 10.424 5.62676 10.5918C5.52696 10.8888 5.64753 11.2121 5.90383 11.3858L6.81621 12.0044C7.05114 12.1636 7.16816 12.4492 7.13977 12.7356C7.09408 13.1963 7.09594 13.6562 7.14258 14.1086C7.17206 14.3948 7.05601 14.6808 6.82165 14.8409L5.91102 15.463C5.65546 15.6376 5.53595 15.961 5.63658 16.2576C5.75119 16.5955 5.886 16.9259 6.04015 17.2469C6.1755 17.5287 6.48464 17.6701 6.78613 17.6081L7.86038 17.387C8.13686 17.3302 8.41747 17.4476 8.59573 17.6707C8.87747 18.0232 9.19601 18.3486 9.54856 18.6402C9.76767 18.8214 9.88385 19.1073 9.82904 19.3896L9.61632 20.4861C9.55656 20.7941 9.6964 21.1092 9.97326 21.2462C10.1297 21.3236 10.2894 21.3966 10.4523 21.4651C10.6152 21.5336 10.7789 21.5966 10.9434 21.6542C11.4245 21.8226 12.0978 21.2199 12.5956 20.7743C12.8411 20.5545 12.9925 20.2436 12.9942 19.9106C12.9942 19.9088 12.9942 19.907 12.9942 19.9053V18.0717C12.9942 18.0523 12.9949 18.033 12.9964 18.014C11.526 17.6552 10.4328 16.3055 10.4328 14.6952V12.7482C10.4328 12.6002 10.5504 12.4802 10.6954 12.4802H11.6061V10.5646C11.6061 10.3001 11.8163 10.0857 12.0755 10.0857C12.3347 10.0857 12.5448 10.3001 12.5448 10.5646V12.4802H15.0088V10.5646C15.0088 10.3001 15.2189 10.0857 15.4781 10.0857C15.7373 10.0857 15.9474 10.3001 15.9474 10.5646V12.4802H16.8582C17.0032 12.4802 17.1208 12.6002 17.1208 12.7482V14.6952C17.1208 16.3564 15.9574 17.7403 14.4166 18.045C14.417 18.0538 14.4171 18.0627 14.4171 18.0717V19.8974C14.4171 20.2368 14.5731 20.5534 14.8259 20.7739C15.3326 21.2158 16.0176 21.8132 16.4959 21.6442C16.8269 21.5272 17.1508 21.3897 17.4654 21.2324C17.7416 21.0943 17.8801 20.7788 17.8193 20.4712L17.6027 19.375C17.547 19.0929 17.6621 18.8065 17.8807 18.6246C18.2261 18.3371 18.545 18.0121 18.8308 17.6524C19.0084 17.4288 19.2885 17.3103 19.5652 17.3661L20.6398 17.5832C20.9417 17.6442 21.2504 17.5015 21.3847 17.219C21.4606 17.0594 21.5321 16.8964 21.5993 16.7302C21.6664 16.564 21.7281 16.3969 21.7845 16.2291C21.8843 15.9321 21.7638 15.6088 21.5075 15.4351L20.5951 14.8165C20.3601 14.6573 20.2431 14.3717 20.2715 14.0853C20.3172 13.6246 20.3153 13.1647 20.2687 12.7123C20.2392 12.4261 20.3552 12.1401 20.5896 11.98L21.5003 11.3579C21.7558 11.1833 21.8753 10.8598 21.7747 10.5633C21.6601 10.2254 21.5253 9.89501 21.3711 9.574C21.2358 9.29216 20.9267 9.15078 20.6252 9.21282L19.5509 9.43385C19.2744 9.49073 18.9938 9.37325 18.8156 9.15022C18.5338 8.79774 18.2153 8.47231 17.8627 8.18075C17.6436 7.99951 17.5274 7.7136 17.5823 7.43126L17.795 6.33477C17.8547 6.02675 17.7149 5.71167 17.438 5.57468C17.2816 5.49731 17.1219 5.42425 16.959 5.35575C16.7961 5.28722 16.6324 5.22424 16.4679 5.16669C16.1769 5.06482 15.8601 5.18788 15.6898 5.44941L15.0836 6.38038C14.9275 6.62012 14.6476 6.73953 14.367 6.71055C13.9155 6.66398 13.4648 6.66584 13.0215 6.71342C12.741 6.7435 12.4607 6.6251 12.3038 6.38593L11.6942 5.45674Z"
			  fill="#005AE0"/>
	</g>
	<defs>
		<clipPath id="clip0">
			<rect width="25.6157" height="25.2648" fill="white" transform="translate(0.858887 0.833313)"/>
		</clipPath>
	</defs>
</svg>

<svg width="27" height="27" fill="none" xmlns="http://www.w3.org/2000/svg"><g clip-path="url(#clip0)"><path fill-rule="evenodd" clip-rule="evenodd" d="M13.706 26.098c6.976 0 12.632-5.656 12.632-12.632 0-6.977-5.656-12.633-12.632-12.633C6.729.833 1.073 6.49 1.073 13.466c0 6.976 5.656 12.632 12.633 12.632zM11.694 5.457a.669.669 0 00-.779-.28 8.499 8.499 0 00-.97.412.694.694 0 00-.353.76l.217 1.097a.786.786 0 01-.278.75 6.626 6.626 0 00-.95.973.754.754 0 01-.735.286l-1.075-.217a.671.671 0 00-.744.364 8.947 8.947 0 00-.4.99c-.1.297.02.62.277.794l.912.618c.235.16.352.445.324.732-.046.46-.044.92.003 1.373a.784.784 0 01-.321.732l-.911.622a.696.696 0 00-.274.795c.114.338.249.668.403.989a.671.671 0 00.746.361l1.074-.221a.754.754 0 01.736.284c.281.352.6.678.953.97.219.18.335.466.28.749l-.213 1.096c-.06.308.08.623.357.76a8.58 8.58 0 00.97.408c.482.169 1.155-.434 1.653-.88.245-.22.396-.53.398-.863v-1.839c0-.02 0-.039.002-.058-1.47-.359-2.563-1.709-2.563-3.319v-1.947c0-.148.117-.268.262-.268h.911v-1.915c0-.265.21-.48.47-.48.259 0 .469.215.469.48v1.915h2.464v-1.915c0-.265.21-.48.47-.48.258 0 .468.215.468.48v1.915h.911c.145 0 .263.12.263.268v1.947c0 1.661-1.164 3.045-2.704 3.35v1.852c0 .34.156.656.409.877.507.442 1.192 1.04 1.67.87a8.51 8.51 0 00.97-.412.694.694 0 00.353-.76l-.216-1.097a.786.786 0 01.278-.75 6.68 6.68 0 00.95-.973.754.754 0 01.734-.286l1.075.217a.671.671 0 00.745-.364 8.947 8.947 0 00.4-.99.696.696 0 00-.277-.794l-.913-.619a.784.784 0 01-.323-.73 6.931 6.931 0 00-.003-1.374.784.784 0 01.32-.732l.911-.622a.696.696 0 00.275-.795 8.848 8.848 0 00-.404-.989.671.671 0 00-.746-.361l-1.074.22a.754.754 0 01-.735-.283 6.627 6.627 0 00-.953-.97.786.786 0 01-.28-.749l.212-1.096a.694.694 0 00-.357-.76 8.587 8.587 0 00-.97-.408.669.669 0 00-.778.282l-.606.931a.756.756 0 01-.717.33 6.426 6.426 0 00-1.346.003.756.756 0 01-.717-.327l-.61-.93z" fill="#005AE0"/></g><defs><clipPath id="clip0"><path fill="#fff" transform="translate(.859 .833)" d="M0 0h25.616v25.265H0z"/></clipPath></defs></svg>
